symbolic/24x24/apps/qtodotxt.svg

<svg xmlns="http://www.w3.org/2000/svg" width="24" height="24" version="1">
 <circle style="opacity:0.2" cx="12" cy="12.5" r="10"/>
 <circle style="fill:#787784" cx="12" cy="12" r="10"/>
 <path style="opacity:0.2" d="m 12,5.499531 a 7,7 0 0 0 -7,7 7,7 0 0 0 7,7 7,7 0 0 0 4.775391,-1.894531 l 2.126953,2.125 a 10,10 0 0 0 2.310547,-3.345703 l -2.384766,-2.384766 a 7,7 0 0 0 0.171875,-1.5 7,7 0 0 0 -7,-7 z m 0,3 a 4,4 0 0 1 4,4 4,4 0 0 1 -4,4 4,4 0 0 1 -4,-4 4,4 0 0 1 4,-4 z"/>
 <path style="fill:#ffffff" d="m 12,5 c -3.8659932,0 -7,3.1340068 -7,7 0,3.865993 3.1340068,7 7,7 1.774381,-0.0034 3.481242,-0.680604 4.775391,-1.894531 l 2.126953,2.125 c 0.991175,-0.945236 1.777611,-2.084006 2.310547,-3.345703 L 18.828125,13.5 C 18.939329,13.007659 18.996956,12.504734 19,12 19,8.1340068 15.865993,5 12,5 Z m 0,3 c 2.209139,0 4,1.790861 4,4 0,2.209139 -1.790861,3.5 -4,3.5 C 9.790861,15.5 8,14.209139 8,12 8,9.790861 9.790861,8 12,8 Z"/>
 <path style="opacity:0.1" d="M 18.398438,4.8178904 12.011719,11.485859 9.5996094,9.2163279 6.2597656,12.481953 9.5839844,15.681172 c 0.6825676,0.511628 1.5266326,0.818359 2.4453126,0.818359 0.897111,0 1.724363,-0.2932 2.398437,-0.783203 l 6.783204,-7.0839845 a 10,10 0 0 0 -2.8125,-3.8144531 z"/>
 <path style="fill:#94c000" d="M 18.398438 4.3183594 L 12.011719 10.986328 L 9.5996094 8.7167969 L 6.2597656 11.982422 L 9.5839844 15.181641 C 10.266552 15.693269 11.110617 16 12.029297 16 C 12.926408 16 13.75366 15.7068 14.427734 15.216797 L 21.210938 8.1328125 A 10 10 0 0 0 18.398438 4.3183594 z"/>
 <path style="opacity:0.1;fill:#ffffff" d="M 12,2 A 10,10 0 0 0 2,12 10,10 0 0 0 2.0107422,12.291016 10,10 0 0 1 12,2.5 10,10 0 0 1 21.989258,12.208985 10,10 0 0 0 22,12 10,10 0 0 0 12,2 Z"/>
</svg>

<svg xmlns="http://www.w3.org/2000/svg" width="24" height="24" version="1"><circle style="opacity:.2" cx="12" cy="12.5" r="10"/><circle style="fill:#787784" cx="12" cy="12" r="10"/><path style="opacity:.2" d="M12 5.5a7 7 0 0 0-7 7 7 7 0 0 0 7 7 7 7 0 0 0 4.775-1.895l2.127 2.125a10 10 0 0 0 2.31-3.346L18.829 14A7 7 0 0 0 19 12.5a7 7 0 0 0-7-7zm0 3a4 4 0 0 1 4 4 4 4 0 0 1-4 4 4 4 0 0 1-4-4 4 4 0 0 1 4-4z"/><path style="fill:#fff" d="M12 5a7 7 0 0 0 0 14 7 7 0 0 0 4.775-1.895l2.127 2.125a10 10 0 0 0 2.31-3.345L18.829 13.5A7 7 0 0 0 19 12a7 7 0 0 0-7-7zm0 3a4 4 0 0 1 4 4c0 2.21-1.79 3.5-4 3.5S8 14.21 8 12a4 4 0 0 1 4-4z"/><path style="opacity:.1" d="m18.398 4.818-6.386 6.668L9.6 9.216l-3.34 3.266 3.324 3.2a4.06 4.06 0 0 0 4.844.034l6.783-7.084a10 10 0 0 0-2.813-3.814z"/><path style="fill:#94c000" d="m18.398 4.318-6.386 6.668L9.6 8.716l-3.34 3.266 3.324 3.2a4.06 4.06 0 0 0 4.844.035l6.783-7.084a10 10 0 0 0-2.813-3.815z"/><path style="opacity:.1;fill:#fff" d="M12 2A10 10 0 0 0 2 12a10 10 0 0 0 .01.291A10 10 0 0 1 12 2.5a10 10 0 0 1 9.99 9.709A10 10 0 0 0 22 12 10 10 0 0 0 12 2z"/></svg>
